X: 36696
T: She Said She Couldn't Dance
R: polka
M: 2/4
K: Gmajor
|:dB GA|B2 Bc|dB GA|BA A2|
dB GA|B2 Bc|d>e dB|AG G2:|
|:dd ef|g2g2|d2 e>f|ed dB|
dd ef|g2 ge|d>e dB|AG G2:|

